X: 24522
T: Lucy Farr's
R: barndance
M: 4/4
K: Gmajor
|:G4 G4|GABG E2 D2|B4 B4|BcdB A4|
BcdB G2 G2|GABG E2 D2|DEGA BddB|A2 G2 G4:|
|:BcdB G2 G2|GABG E2 D2|DEGA BddB|1 BAAG A4:|2 A2 G2 G4||

